X: 21075
T: Just Cook For Yourself
R: reel
M: 4/4
K: Cmajor
[K:Eb]
GF|:EB,-~B,2 DEFA|GE- ~E2 FGAc|BEcE BEGe|BGEG FAGF|
EB,-~B,2 DEFA|GE- ~E2 FGAc|BEcE BEGe|1 BGFG EAGF:|2 BGFG E2||
|:ed|cEdE cE(ce)|BEcE BE(Ge)|cEdE cEcg|fede c2 (3Bcd|
eBce BGEG|FEGE FECD|~E2 BC DEFA|GBAF ~E2:|

